assets/icons/standard/letterhead.svg

<?xml version="1.0"?><svg xmlns="http://www.w3.org/2000/svg" width="100" height="100" viewBox="0 0 100 100"><path fill="#fff" d="m73.8 20h-47.6c-3.4 0-6.2 2.8-6.2 6.2v47.6c0 3.4 2.8 6.2 6.2 6.2h47.6c3.4 0 6.2-2.8 6.2-6.2v-47.6c0-3.4-2.8-6.2-6.2-6.2z m-2.8 49.1c0 0.8-0.8 1.4-1.6 1.4h-38.9c-0.8 0-1.4-0.8-1.4-1.6v-9c0-0.8 0.8-1.4 1.6-1.4h38.9c0.8 0 1.4 0.8 1.4 1.6v9z m0-29.2c0 0.8-0.8 1.4-1.6 1.4h-38.9c-0.8 0-1.4-0.8-1.4-1.6v-9c0-0.8 0.8-1.4 1.6-1.4h38.9c0.8 0 1.4 0.8 1.4 1.6v9z"></path></svg>

<svg xmlns="http://www.w3.org/2000/svg" x="0px" y="0px"
	 width="100px" height="100px" viewBox="0 0 100 100" enable-background="new 0 0 100 100" xml:space="preserve">
<path fill="#FFFFFF" d="M73.8,20H26.2c-3.4,0-6.2,2.8-6.2,6.2v47.6c0,3.4,2.8,6.2,6.2,6.2h47.6c3.4,0,6.2-2.8,6.2-6.2V26.2
	C80,22.8,77.2,20,73.8,20z M71,69.1c0,0.8-0.8,1.4-1.6,1.4H30.5c-0.8,0-1.4-0.8-1.4-1.6v-9c0-0.8,0.8-1.4,1.6-1.4h38.9
	c0.8,0,1.4,0.8,1.4,1.6V69.1z M71,39.9c0,0.8-0.8,1.4-1.6,1.4H30.5c-0.8,0-1.4-0.8-1.4-1.6v-9c0-0.8,0.8-1.4,1.6-1.4h38.9
	c0.8,0,1.4,0.8,1.4,1.6V39.9z"/>
</svg>
